X:578
T:The Reel Of Mullinavat
N:anon.
O:Ireland
B:Francis O'Neill: "The Dance Music of Ireland" (1907) no. 578
R:Reel
Z:Transcribed by Frank Nordberg - http://www.musicaviva.com
N:Music Aviva - The Internet center for free sheet music downloads
M:C|
L:1/8
K:Em
(ef)|gfed BAGF|GBAF E3F|[1GBAF GABc|dB({c}B)A Bee||
(ef)|gfef gebe|gebe afdf|[1gfef gebe|afde fee
